X:1
T:Title
%%score { ( 1 3 ) | ( 2 4 ) }
L:1/8
M:4/4
K:Bb
V:1 treble nm="Grand Piano"
V:3 treble 
V:2 bass 
V:4 bass 
V:1
 z4 z2[Q:1/4=100] [DF]2 | [DF]3 [B,D] [DF][DB][Ec][Fd] | B4 F2 [B,DF]2 | %3
 [B,EG]3 [B,GB] [B,FA]2 [B,EG]2 |[M:3/4] [B,DF]6 |[M:1/4] F2 |[M:4/4] A3 G FAce | [Fd]4 B2 G2 | %8
 F3 F G2 A2 |[M:3/4] [DB]6 |[M:1/4] FF |[M:4/4] d4 z4 | [Ec]2 [EG]4 z2 | [FB]2 FF c2 F2 | %14
[M:3/4] [Fd]6 |[M:1/4] FF |[M:4/4] d4 z4 | [Ec]2 [EG]4 [Ge]2 | d3 B d2 c2 |[M:3/4] [DB]6 |] %20
V:2
 z4 z2 [B,,B,]2 | [B,,B,]3 [B,,F,] [B,,B,][B,,B,][B,,B,][B,,B,] | F,4 B,2 B,,2 | E,3 E, E,2 E,2 | %4
[M:3/4] B,,6 |[M:1/4] [B,D]2 |[M:4/4] [F,CE]3 [F,B,E] [F,A,E][F,CE][F,A,E][F,A,E] | %7
 B,4 [F,D]2 [=E,B,_D]2 | [F,B,D]3 [F,B,D] [F,A,E]2 [F,E]2 |[M:3/4] [B,,F,]6 |[M:1/4][K:treble] DD | %11
[M:4/4] F4[K:bass] z4 | [E,G,]2 [E,C]4 z2 | [D,B,]2 [D,B,][D,B,] [F,A,F]2 [F,A,]2 | %14
[M:3/4] [B,,B,]6 |[M:1/4][K:treble] DD |[M:4/4] F4[K:bass] z4 | [E,G,]2 [E,C]4 [E,B,]2 | %18
 [F,B,F]3 [F,D] [F,F]2 [F,E]2 |[M:3/4] [B,,F,]6 |] %20
V:3
 x8 | x8 | D6 z2 | x8 |[M:3/4] x6 |[M:1/4] x2 |[M:4/4] x8 | x8 | x8 |[M:3/4] x6 |[M:1/4] x2 | %11
[M:4/4] z2 B,B, [Ge][Fd][Ec][DB] | x8 | x8 |[M:3/4] x6 |[M:1/4] x2 | %16
[M:4/4] z2 B,B, [Ge][Fd][Ec][DB] | x8 | x8 |[M:3/4] x6 |] %20
V:4
 x8 | x8 | B,,6 z2 | x8 |[M:3/4] x6 |[M:1/4] x2 |[M:4/4] x8 | B,,6 z2 | x8 |[M:3/4] x6 | %10
[M:1/4][K:treble] x2 |[M:4/4] z2[K:bass] B,,B,, [B,,B,]2 [B,,F,][B,,F,] | x8 | x8 |[M:3/4] x6 | %15
[M:1/4][K:treble] x2 |[M:4/4] z2[K:bass] B,,B,, [B,,B,]2 [B,,F,][B,,F,] | x8 | x8 |[M:3/4] x6 |] %20

